X:1
T: Lord Rollo's Reel
C:R. Mackintosh
R:Reel
Q: 232
K:D
M:4/4
L:1/8
|:B|AF GE FD DB|AF dF BE EB|AF GE FA dg|fa eg fd dB|
AF GE FD DB|AF dF BE EB|AF GE FA dg|fa eg fd dg|
fa df ec Ac|Bd AF GE Eg|fa df ec A=c|Bb ag fd dg|
fa df ec Ac|BG AF GE EG|FD GE AF BG|Ac eg fd d:|
